resources/svg/align-left.svg

<svg xmlns="http://www.w3.org/2000/svg" viewBox="0 0 24 24" fill="currentColor">
    <g>
        <path fill="none" d="M0 0h24v24H0z"/>
        <path d="M3 4h18v2H3V4zm0 15h14v2H3v-2zm0-5h18v2H3v-2zm0-5h14v2H3V9z"/>
    </g>
</svg>

<svg fill="currentColor" viewBox="0 0 24 24" xmlns="http://www.w3.org/2000/svg"><path d="M3 4H21V6H3V4ZM3 19H17V21H3V19ZM3 14H21V16H3V14ZM3 9H17V11H3V9Z"/></svg>
